icons/snowy-fill.svg

<svg xmlns="http://www.w3.org/2000/svg" width="24" height="24" fill="none"><g clip-path="url(#a)"><g><path fill="#121212" d="M6.02669 17.43C4.30206 16.7377 2.87211 15.4669 1.98218 13.8354C1.09226 12.204 0.797838 10.3137 1.14944 8.48885C1.50104 6.66404 2.47674 5.01847 3.90913 3.83448C5.34152 2.65049 7.14131 2.00191 8.99969 2C10.6117 1.99991 12.1862 2.48665 13.517 3.39648C14.8478 4.30631 15.8727 5.59682 16.4577 7.099C17.8652 6.96689 19.2696 7.38187 20.3793 8.25779C21.489 9.13372 22.2188 10.4033 22.4172 11.8031C22.6156 13.2028 22.2674 14.6252 21.4448 15.775C20.6223 16.9248 19.3885 17.7137 17.9997 17.978C17.9947 16.4376 17.3976 14.9581 16.3318 13.846C15.266 12.7338 13.8133 12.0741 12.2745 12.0035C10.7358 11.933 9.2288 12.457 8.06573 13.4669C6.90265 14.4769 6.17257 15.8955 6.02669 17.429V17.43ZM12.9997 16.267L14.9637 15.133L15.9637 16.865L13.9997 18L15.9637 19.134L14.9637 20.866L12.9997 19.732V22H10.9997V19.732L9.03569 20.866L8.03569 19.134L9.99969 18L8.03569 16.866L9.03569 15.134L10.9997 16.268V14H12.9997V16.268V16.267Z"/></g></g><defs><clipPath id="a"><rect width="24" height="24" fill="white"/></clipPath></defs></svg>

<svg width="24" height="24" fill="none" xmlns="http://www.w3.org/2000/svg"><g clip-path="url(#a)"><path d="M6.027 17.43A8.003 8.003 0 0 1 9 2a8.003 8.003 0 0 1 7.458 5.099A5.5 5.5 0 0 1 18 17.978a6 6 0 0 0-11.973-.549v.001ZM13 16.267l1.964-1.134 1 1.732L14 18l1.964 1.134-1 1.732L13 19.732V22h-2v-2.268l-1.964 1.134-1-1.732L10 18l-1.964-1.134 1-1.732L11 16.268V14h2v2.268-.001Z" /></g><defs><clipPath id="a"><path fill="#fff" d="M0 0h24v24H0z"/></clipPath></defs></svg>
